X:1
T:O Holy Night
T:Adolphe Adam (1803-1856)
T:O Holy Night
T:Public Domain
T:Public Domain
T:Public Domain
T:Public Domain
T:Public Domain
T:Public Domain
T:Public Domain
C:Adolphe Adam (1803-1856)
Z:Public Domain
%%score ( 1 2 ) ( 3 4 ) { ( 5 7 ) | ( 6 8 ) }
L:1/8
M:none
K:Db
V:1 treble 
V:2 treble 
V:3 bass 
V:4 bass 
V:5 treble 
V:7 treble 
V:6 bass 
V:8 bass 
V:1
 z4 | z8 | z8 | z8 | z4 F2 F>F | A2 A>A B>BG>B | d4 A>AF>E | D2 F>G A2 G>E | D8 | z4 F2 F>F | %10
 A2 A>A B>BG>B | d4 A>A=G>F | c2 A>B c2 d>c | F6 z A | A2 B2 E2 A2 | B>Ad>F B2 A>A | A2 B2 E2 A2 | %17
 B>Ad>F A4 |: d6 F>B | A6 cc | G4- e>GB>G | d4 F2 z F | f4 e3 A | A4 B2 c>G | A4- G>AG>A | F6 d2 | %26
 e6 z A | A4 B2 B2 | d4 G2 d>G | d6 z2 :| e6 A2 | a4- agfe | [Ad]4 [Gc]2 [Fd]>[Ge] | [Fd]8 |] %34
V:2
 x4 | x8 | x8 | x8 | x8 | x8 | x8 | x8 | x8 | x8 | x8 | x8 | x8 | x8 | x8 | x8 | x8 | x8 |: %18
 F6 c>F | c6 FF | e4- G>BG>B | F4 d2 d x | A4 A3 x | d4 d2 A>B | F4 A>GB>G | A6 A2 | A6 x2 | %27
 f6 e2 | A4 c2 G>e | F6 x2 :| A6 e2 | A4 B2 B2 | x8 | x8 |] %34
V:3
 z4 | z8 | z8 | z8 | z8 | z8 | z8 | z8 | z8 | z8 | z8 | z8 | z8 | z8 | z8 | z8 | z8 | z8 |: %18
 [B,D]6 [B,E]>[B,D] | [A,C]6 [F,A,][F,A,] | [E,B,]4- [E,B,]>[E,E][E,E]>[E,E] | %21
 [B,D]4 [B,D]2 z [B,D] | [A,D]4 [G,C]3 [G,C] | [F,D]4 [G,D]2 [G,D]>[G,D] | %24
 [A,D]4 [A,,C]>[A,,C][A,,C]>[A,,C] | [D,D]6 [F,D]2 | [A,C]4- [A,C]3 [G,C] | [F,D]4 [G,D]2 DE | %28
 [A,F]4 [A,E]2 [A,D]>[A,,C] | [D,D]6 z2 :| [A,C]6 [G,C]2 | D2 _C2 B,2 [G,E]2 | %32
 [A,F]4 [A,E]2 [A,D]>[A,C] | [D,D]8 |] %34
V:4
 x4 | x8 | x8 | x8 | x8 | x8 | x8 | x8 | x8 | x8 | x8 | x8 | x8 | x8 | x8 | x8 | x8 | x8 |: x8 | %19
 x8 | x8 | x8 | x8 | x8 | x8 | x8 | x8 | x6 G,2 | x8 | x8 :| x8 | F,4 G,2 x2 | x8 | x8 |] %34
V:5
 [DF]2 [DF]>F | A2 A>A B2 G>B | [=Ed]4 [Ed][=eb][ec'][ed'] | f'd'af f2 e2 | %4
 (3:2:6F,DA,FDA, (3:2:6F,DA,FDA, | (3:2:6F,DA,FDA, (3:2:6G,DB,GDB, | %6
 (3:2:6F,DA,FDA, (3:2:6F,DA,FDA, | (3:2:6F,DA,FDA, (3:2:6G,CA,ECA, | %8
 (3:2:6F,DA,FDA, (3:2:6F,DA,FDA, | (3:2:6F,DA,FDA, (3:2:6F,DA,FDA, | %10
 (3:2:6F,DA,FDA, (3:2:6G,DB,GDB, | (3:2:6F,DA,FDA, (3:2:6F,=B,A,FB,A, | %12
 (3:2:6F,CA,FCA, (3:2:6=G,CB,=ECB, | (3:2:6F,CA,FCA, (3:2:6F,CA,FCA, | %14
 (3:2:6G,CA,ECA, (3:2:6G,CA,ECA, | (3:2:6F,DA,FDA, (3:2:6F,DA,FDA, | %16
 (3:2:6G,CA,ECA, (3:2:6G,CA,ECA, | (3:2:6F,DA,FDA, (3:2:6F,DA,FDA, |: defd Bdcf/B/ | A-cf=g agfc | %20
 eBef gabc' | d'bd'e' [bd']2 [Fd]2 | [Af]4 [Ae]3 A | [Ad]4 [Bd]2 [Ac]>[GB] | %24
 [FA]4 [CGA]>[CGA][CGB]>[CGA] | [DFA]6 [FAd]2 | [EAce]4 [EGce]3 [A,CEA] | [FA]4 [FB]2 [EB]2 | %28
 [DFAd]4 [EGAc]2 [EGAd]>[EGce] | (3:2:6[DFAd]DA,FDA, (3:2:6F,DA,DFA :| [EGAe]6 [CEA]2 | %31
 [A-da-]2 [Ada]2 agfe | [FAd]4 [EGc]2 [FAd]>[GAe] | [FAd]8 |] %34
V:6
 [D,A,]4 | [F,A,]4 [G,B,]4 | [=G,B,]4 [G,B,] z3 | z4 [A,G]4 | [D,,A,,D,]8 | [D,,A,,D,]4 [G,,D,]4 | %6
 [D,,A,,D,]4 [F,,D,]4 | [A,,,A,,]8 | [D,,A,,D,]8 | [D,,A,,D,]8 | [D,,A,,D,]4 [G,,D,]4 | %11
 [D,,A,,D,]4 [D,,D,]4 | [C,,C,]4 [C,,C,]4 | F,,4 z4 | C,2 A,,2 C,2 A,,2 | D,2 A,,2 D,2 A,,2 | %16
 C,2 A,,2 C,2 A,,2 | D,2 A,,2 [D,,A,,]2 z2 |: [B,D]6 E>D | [F,C]6- [F,C][F,A,] | B,6 G,2 | %21
 [B,,F,]6 [B,D]2 | [A,D]4 [G,C]3 [G,C] | [F,D]4 [G,D]2 [G,D]2 | [A,D]4 A,,4 | %25
 [D,D]2 [C,C]2 [B,,B,]2 [A,,A,]2 | [A,,A,]4 [G,,G,]4 | [F,,F,]4 [G,,G,]4 | %28
 [A,,A,]2 [A,,,A,,]2 [A,,,A,,]2 [A,,A,]2 | [D,,A,,D,]8 :| [C,C]2 [B,,B,]2 [A,,A,]2 [G,,G,]2 | %31
 [F,,F,]4 [G,,G,]2 [G,,G,]2 | [A,,A,]4 [A,,A,]2 [A,,,A,,]2 | [D,,D,]8 |] %34
V:7
 x4 | D4 D4 | x4 [=GB][GB][GB] x | [Adf]4 c4 | x8 | x8 | x8 | x8 | x8 | x8 | x8 | x8 | x8 | x8 | %14
 x8 | x8 | x8 | x8 |: F6 F2 | x A- A4- AA | G4 B2 e2 | d6 x2 | x8 | x8 | x8 | x8 | x8 | f6 e2 | %28
 x8 | x8 :| x8 | x4 [_cd]2 B2 | x8 | x8 |] %34
V:8
 x4 | x8 | x8 | x8 | x8 | x8 | x8 | x8 | x8 | x8 | x8 | x8 | x8 | x8 | C,,8 | D,,8 | C,,8 | %17
 D,,4 x4 |: x6 B,2 | x8 | E,8 | x8 | x8 | x8 | x8 | x8 | x8 | x8 | x8 | x8 :| x8 | x8 | x8 | x8 |] %34

